ref/SOtele.sp
SPECT

DESCRIPTOR "Argyll Spectrolino tele adapter compensation filter"
ORIGINATOR "Argyll CMS"
CREATED "Wed Jun 21 17:49:57 2006"
KEYWORD "SPECTRAL_BANDS"
SPECTRAL_BANDS "36"
KEYWORD "SPECTRAL_START_NM"
SPECTRAL_START_NM "380.000000"
KEYWORD "SPECTRAL_END_NM"
SPECTRAL_END_NM "730.000000"
KEYWORD "SPECTRAL_NORM"
SPECTRAL_NORM "1.000000"

NUMBER_OF_FIELDS 36
BEGIN_DATA_FORMAT
SPEC_380 SPEC_390 SPEC_400 SPEC_410 SPEC_420 SPEC_430 SPEC_440 SPEC_450 SPEC_460 SPEC_470 SPEC_480 SPEC_490 SPEC_500 SPEC_510 SPEC_520 SPEC_530 SPEC_540 SPEC_550 SPEC_560 SPEC_570 SPEC_580 SPEC_590 SPEC_600 SPEC_610 SPEC_620 SPEC_630 SPEC_640 SPEC_650 SPEC_660 SPEC_670 SPEC_680 SPEC_690 SPEC_700 SPEC_710 SPEC_720 SPEC_730
END_DATA_FORMAT

NUMBER_OF_SETS 1
BEGIN_DATA
0.5754402118 0.7522190462 0.855358823 0.8839388314 0.8829242451 0.8848774445 0.8847991506 0.8857395926 0.8858965273 0.8869966294 0.8860535176 0.8865248227 0.8870753127 0.887862914 0.8895214375 0.8903926632 0.8903926632 0.8903926632 0.8903926632 0.8903926632 0.8903926632 0.8903926632 0.8903926632 0.8903926632 0.8903926632 0.8903926632 0.8903926632 0.8903926632 0.8903926632 0.8903926632 0.8903926632 0.8903926632 0.8903926632 0.8903926632 0.8903926632 0.8903926632
END_DATA
